fs/box_toolbox_20_filled.svg

<svg viewBox="0 0 20 20" fill="none" xmlns="http://www.w3.org/2000/svg" height="1em" width="1em">
  <path d="M17.4212 4.99247L14.3751 6.21088L6.87504 3.21084L8.70013 2.4808C9.53457 2.14702 10.4654 2.14702 11.2999 2.4808L17.0571 4.78369C17.1898 4.83679 17.312 4.90749 17.4212 4.99247ZM10.0001 7.96088L13.0289 6.74939L5.52875 3.74935L2.94291 4.78369C2.81019 4.83678 2.68812 4.90745 2.57894 4.99239L10.0001 7.96088ZM2.03542 5.85202C2.01215 5.95711 2 6.06575 2 6.1764V13.8223C2 14.4357 2.37343 14.9873 2.94291 15.2151L8.70013 17.5179C8.79982 17.5578 8.90089 17.5929 9.00301 17.6233C9.00101 17.5823 9 17.541 9 17.4995V13.4995C9 12.9365 9.1861 12.417 9.50015 11.9991V8.83791L2.03542 5.85202ZM18 6.1764V11.0495C17.9861 11.0467 17.9721 11.044 17.9581 11.0414C17.7429 9.87947 16.7242 8.99951 15.5 8.99951H13.5C12.2758 8.99951 11.2571 9.87947 11.0419 11.0414C10.853 11.0764 10.6716 11.1326 10.5001 11.2075V8.83791L17.9646 5.85213C17.9879 5.95719 18 6.06579 18 6.1764ZM12 11.9995V11.4995C12 10.6711 12.6716 9.99951 13.5 9.99951H15.5C16.3284 9.99951 17 10.6711 17 11.4995V11.9995H17.5C18.3284 11.9995 19 12.6711 19 13.4995V14.9995H17V14.4995C17 14.2234 16.7761 13.9995 16.5 13.9995C16.2239 13.9995 16 14.2234 16 14.4995V14.9995H13V14.4995C13 14.2234 12.7761 13.9995 12.5 13.9995C12.2239 13.9995 12 14.2234 12 14.4995V14.9995H10V13.4995C10 12.6711 10.6716 11.9995 11.5 11.9995H12ZM13 11.4995V11.9995H16V11.4995C16 11.2234 15.7761 10.9995 15.5 10.9995H13.5C13.2239 10.9995 13 11.2234 13 11.4995ZM17 16.4995V15.9995H19V17.4995C19 18.3279 18.3284 18.9995 17.5 18.9995H11.5C10.6716 18.9995 10 18.3279 10 17.4995V15.9995H12V16.4995C12 16.7757 12.2239 16.9995 12.5 16.9995C12.7761 16.9995 13 16.7757 13 16.4995V15.9995H16V16.4995C16 16.7757 16.2239 16.9995 16.5 16.9995C16.7761 16.9995 17 16.7757 17 16.4995Z" fill="#212121"/>
</svg>

<svg viewBox="0 0 20 20" fill="none" xmlns="http://www.w3.org/2000/svg" height="1em" width="1em">
  <path d="m17.421 4.992-3.046 1.219-7.5-3L8.7 2.48a3.5 3.5 0 0 1 2.6 0l5.757 2.303a1.5 1.5 0 0 1 .364.208Zm-7.42 2.969 3.028-1.212-7.5-3-2.586 1.035a1.499 1.499 0 0 0-.364.208L10 7.961ZM2.034 5.852A1.5 1.5 0 0 0 2 6.176v7.646a1.5 1.5 0 0 0 .943 1.393L8.7 17.518c.1.04.2.075.303.105A2.542 2.542 0 0 1 9 17.5v-4c0-.563.186-1.083.5-1.5V8.837L2.035 5.852ZM18 6.176v4.873a2.82 2.82 0 0 0-.042-.008A2.5 2.5 0 0 0 15.5 9h-2a2.5 2.5 0 0 0-2.458 2.041c-.189.035-.37.092-.542.166v-2.37l7.465-2.985c.023.105.035.214.035.324ZM12 12v-.5a1.5 1.5 0 0 1 1.5-1.5h2a1.5 1.5 0 0 1 1.5 1.5v.5h.5a1.5 1.5 0 0 1 1.5 1.5V15h-2v-.5a.5.5 0 0 0-1 0v.5h-3v-.5a.5.5 0 0 0-1 0v.5h-2v-1.5a1.5 1.5 0 0 1 1.5-1.5h.5Zm1-.5v.5h3v-.5a.5.5 0 0 0-.5-.5h-2a.5.5 0 0 0-.5.5Zm4 5V16h2v1.5a1.5 1.5 0 0 1-1.5 1.5h-6a1.5 1.5 0 0 1-1.5-1.5V16h2v.5a.5.5 0 1 0 1 0V16h3v.5a.5.5 0 1 0 1 0Z" fill="#212121"/>
</svg>
